static/img/kroki/91d51ae80aa840ff3addc3d06ea0a2ba.svg

<?xml version="1.0" encoding="us-ascii" standalone="no"?><svg xmlns="http://www.w3.org/2000/svg" xmlns:xlink="http://www.w3.org/1999/xlink" contentStyleType="text/css" height="374px" preserveAspectRatio="none" style="width:226px;height:374px;" version="1.1" viewBox="0 0 226 374" width="226px" zoomAndPan="magnify"><defs/><g><!--class gcp_machine_image--><g id="elem_gcp_machine_image"><rect codeLine="23" fill="#3D176E" height="39.7891" id="gcp_machine_image" rx="2.5" ry="2.5" style="stroke:#000D19;stroke-width:0.5;" width="212" x="7" y="328.58"/><ellipse cx="22" cy="348.4745" fill="#ADD1B2" rx="11" ry="11" style="stroke:#181818;stroke-width:1.0;"/><path d="M24.9688,354.1152 Q24.3906,354.412 23.75,354.5527 Q23.1094,354.7089 22.4063,354.7089 Q19.9063,354.7089 18.5781,353.0683 Q17.2656,351.412 17.2656,348.287 Q17.2656,345.162 18.5781,343.5058 Q19.9063,341.8495 22.4063,341.8495 Q23.1094,341.8495 23.75,342.0058 Q24.4063,342.162 24.9688,342.4589 L24.9688,345.1777 Q24.3438,344.5995 23.75,344.3339 Q23.1563,344.0527 22.5313,344.0527 Q21.1875,344.0527 20.5,345.1308 Q19.8125,346.1933 19.8125,348.287 Q19.8125,350.3808 20.5,351.4589 Q21.1875,352.5214 22.5313,352.5214 Q23.1563,352.5214 23.75,352.2558 Q24.3438,351.9745 24.9688,351.3964 L24.9688,354.1152 Z " fill="#000000"/><text fill="#D9B8FF" font-family="Helvetica" font-size="17" lengthAdjust="spacing" textLength="170" x="41" y="354.3598">gcp_machine_image</text></g><!--class gcp_resource--><g id="elem_gcp_resource"><rect codeLine="26" fill="#3D176E" height="39.7891" id="gcp_resource" rx="2.5" ry="2.5" style="stroke:#000D19;stroke-width:0.5;" width="150" x="38" y="167.79"/><ellipse cx="53" cy="187.6845" fill="#ADD1B2" rx="11" ry="11" style="stroke:#181818;stroke-width:1.0;"/><path d="M55.9688,193.3252 Q55.3906,193.622 54.75,193.7627 Q54.1094,193.9189 53.4063,193.9189 Q50.9063,193.9189 49.5781,192.2783 Q48.2656,190.622 48.2656,187.497 Q48.2656,184.372 49.5781,182.7158 Q50.9063,181.0595 53.4063,181.0595 Q54.1094,181.0595 54.75,181.2158 Q55.4063,181.372 55.9688,181.6689 L55.9688,184.3877 Q55.3438,183.8095 54.75,183.5439 Q54.1563,183.2627 53.5313,183.2627 Q52.1875,183.2627 51.5,184.3408 Q50.8125,185.4033 50.8125,187.497 Q50.8125,189.5908 51.5,190.6689 Q52.1875,191.7314 53.5313,191.7314 Q54.1563,191.7314 54.75,191.4658 Q55.3438,191.1845 55.9688,190.6064 L55.9688,193.3252 Z " fill="#000000"/><text fill="#D9B8FF" font-family="Helvetica" font-size="17" lengthAdjust="spacing" textLength="108" x="72" y="193.5698">gcp_resource</text></g><!--class resource--><g id="elem_resource"><rect codeLine="29" fill="#3D176E" height="39.7891" id="resource" rx="2.5" ry="2.5" style="stroke:#000D19;stroke-width:0.5;" width="113" x="56.5" y="7"/><ellipse cx="71.5" cy="26.8945" fill="#ADD1B2" rx="11" ry="11" style="stroke:#181818;stroke-width:1.0;"/><path d="M74.4688,32.5352 Q73.8906,32.832 73.25,32.9727 Q72.6094,33.1289 71.9063,33.1289 Q69.4063,33.1289 68.0781,31.4883 Q66.7656,29.832 66.7656,26.707 Q66.7656,23.582 68.0781,21.9258 Q69.4063,20.2695 71.9063,20.2695 Q72.6094,20.2695 73.25,20.4258 Q73.9063,20.582 74.4688,20.8789 L74.4688,23.5977 Q73.8438,23.0195 73.25,22.7539 Q72.6563,22.4727 72.0313,22.4727 Q70.6875,22.4727 70,23.5508 Q69.3125,24.6133 69.3125,26.707 Q69.3125,28.8008 70,29.8789 Q70.6875,30.9414 72.0313,30.9414 Q72.6563,30.9414 73.25,30.6758 Q73.8438,30.3945 74.4688,29.8164 L74.4688,32.5352 Z " fill="#000000"/><text fill="#D9B8FF" font-family="Helvetica" font-size="17" lengthAdjust="spacing" textLength="71" x="90.5" y="32.7798">resource</text></g><!--reverse link gcp_resource to gcp_machine_image--><g id="link_gcp_resource_gcp_machine_image"><path codeLine="32" d="M113,225.84 C113,256.36 113,297.69 113,328.25 " fill="none" id="gcp_resource-backto-gcp_machine_image" style="stroke:#FFAF37;stroke-width:2.0;"/><polygon fill="none" points="113,207.84,107,225.84,119,225.84,113,207.84" style="stroke:#FFAF37;stroke-width:2.0;"/></g><!--reverse link resource to gcp_resource--><g id="link_resource_gcp_resource"><path codeLine="33" d="M113,65.05 C113,95.57 113,136.9 113,167.46 " fill="none" id="resource-backto-gcp_resource" style="stroke:#FFAF37;stroke-width:2.0;"/><polygon fill="none" points="113,47.05,107,65.05,119,65.05,113,47.05" style="stroke:#FFAF37;stroke-width:2.0;"/></g><!--SRC=[XP1BQyCm48Jl-XM2d0DnGviOUaaCfRs4qlGUrjBA5hOair8QqiT_RzqqHRRpkCvypCnkgILoD4tOSuCcH_BCLzesG63uWiZjCbSxuYEbG4rdVVF1sN0LM851_eZr6mOje4-ybbfK5htdDv6r154LvBPM7k83WVK_5jeGKLaDtYz289rl0qPZP9hFbUgJ_T3HL2QpEnnWZYJI7pAPJ6IIzf6hLHVl_YVM-Xrv4ZzjvG8EPWugVgcBAriY6ZauzEYVtVWCKcfRyDj8Upbi8elKqTSbIBThQGMrZsjyG48NzWrcWwimdKirEma_dOEPQ5_72z5i38XIMzne0mNo3yQ-8fFGkos9ZjxLEjJzvtWy7gQo4y1HOjy0]--></g></svg>

<svg xmlns="http://www.w3.org/2000/svg" width="226" height="374" viewBox="0 0 226 374"><rect width="212" height="39.789" x="7" y="328.58" fill="#3D176E" rx="2.5" ry="2.5" style="stroke:#000d19;stroke-width:.5"/><circle cx="22" cy="348.474" r="11" fill="#ADD1B2" style="stroke:#181818;stroke-width:1"/><path d="M24.969 354.115q-.578.297-1.219.438-.64.156-1.344.156-2.5 0-3.828-1.64-1.312-1.657-1.312-4.782t1.312-4.781q1.328-1.656 3.828-1.656.703 0 1.344.156.656.156 1.219.453v2.719q-.625-.579-1.219-.844-.594-.281-1.219-.281-1.343 0-2.031 1.078-.687 1.062-.687 3.156t.687 3.172q.688 1.062 2.031 1.062.625 0 1.219-.265.594-.281 1.219-.86z"/><text x="41" y="354.36" fill="#D9B8FF" font-family="Helvetica" font-size="17" textLength="170">gcp_machine_image</text><rect width="150" height="39.789" x="38" y="167.79" fill="#3D176E" rx="2.5" ry="2.5" style="stroke:#000d19;stroke-width:.5"/><circle cx="53" cy="187.685" r="11" fill="#ADD1B2" style="stroke:#181818;stroke-width:1"/><path d="M55.969 193.325q-.578.297-1.219.438-.64.156-1.344.156-2.5 0-3.828-1.64-1.312-1.657-1.312-4.782t1.312-4.781q1.328-1.656 3.828-1.656.703 0 1.344.156.656.156 1.219.453v2.719q-.625-.578-1.219-.844-.594-.281-1.219-.281-1.343 0-2.031 1.078-.687 1.062-.687 3.156t.687 3.172q.688 1.062 2.031 1.062.625 0 1.219-.265.594-.281 1.219-.86z"/><text x="72" y="193.57" fill="#D9B8FF" font-family="Helvetica" font-size="17" textLength="108">gcp_resource</text><rect width="113" height="39.789" x="56.5" y="7" fill="#3D176E" rx="2.5" ry="2.5" style="stroke:#000d19;stroke-width:.5"/><circle cx="71.5" cy="26.895" r="11" fill="#ADD1B2" style="stroke:#181818;stroke-width:1"/><path d="M74.469 32.535q-.578.297-1.219.438-.64.156-1.344.156-2.5 0-3.828-1.64-1.312-1.657-1.312-4.782t1.312-4.781q1.328-1.656 3.828-1.656.703 0 1.344.156.656.156 1.219.453v2.719q-.625-.578-1.219-.844-.594-.281-1.219-.281-1.344 0-2.031 1.078-.687 1.062-.687 3.156T70 29.879q.688 1.062 2.031 1.062.625 0 1.219-.265.594-.281 1.219-.86z"/><text x="90.5" y="32.78" fill="#D9B8FF" font-family="Helvetica" font-size="17" textLength="71">resource</text><path fill="none" d="M113 225.84v102.41m0-120.41-6 18h12zm0-142.79v102.41m0-120.41-6 18h12z" style="stroke:#ffaf37;stroke-width:2"/></svg>
